packages/bezier-icons/icons/clip.svg

<svg width="24" height="24" viewBox="0 0 24 24" fill="none" xmlns="http://www.w3.org/2000/svg">
<path fill-rule="evenodd" clip-rule="evenodd" d="M20.4862 13.487C20.0957 13.0965 19.4626 13.0965 19.072 13.487L13.5351 19.0239C11.5827 20.9764 8.41683 20.9764 6.46436 19.0239C4.51188 17.0714 4.51188 13.9056 6.46436 11.9531L13.5404 4.87714C14.709 3.70773 16.6045 3.70773 17.7729 4.87691C18.9416 6.04561 18.9416 7.94045 17.7731 9.10892L10.6132 16.2679C10.2203 16.6612 9.58318 16.6612 9.19081 16.2684C8.79703 15.8751 8.79703 15.238 9.18991 14.8456L14.8102 9.22524C15.2008 8.83472 15.2008 8.20155 14.8103 7.81103C14.4197 7.4205 13.7866 7.4205 13.396 7.81103L7.77614 13.4309C6.60147 14.6041 6.60147 16.509 7.77659 17.6826C8.94932 18.8568 10.8542 18.8568 12.0278 17.6817L19.1873 10.5232C21.1369 8.57361 21.1369 5.41245 19.1874 3.46292C17.238 1.51232 14.0755 1.51232 12.1259 3.46315L5.05014 10.5389C2.31662 13.2724 2.31662 17.7046 5.05014 20.4381C7.78367 23.1717 12.2158 23.1717 14.9494 20.4381L20.4862 14.9012C20.8768 14.5107 20.8768 13.8776 20.4862 13.487Z" fill="#313234"/>
</svg>

<svg xmlns="http://www.w3.org/2000/svg" width="24" height="24" fill="none" viewBox="0 0 24 24"><path fill="#313234" fill-rule="evenodd" d="M20.486 13.487a1 1 0 0 0-1.414 0l-5.537 5.537a5 5 0 0 1-7.07-7.07l7.075-7.077a2.992 2.992 0 1 1 4.233 4.232l-7.16 7.159a1.005 1.005 0 1 1-1.423-1.422l5.62-5.62a1 1 0 1 0-1.414-1.415l-5.62 5.62a3.005 3.005 0 0 0 0 4.252 3.005 3.005 0 0 0 4.252-.001l7.16-7.159a4.993 4.993 0 1 0-7.062-7.06L5.05 10.54a7 7 0 0 0 9.9 9.9l5.536-5.538a1 1 0 0 0 0-1.414" clip-rule="evenodd"/></svg>
